svgs/trivia_you.svg

<svg xmlns="http://www.w3.org/2000/svg" viewBox="0 0 192 192"><path fill="none" stroke="#000" stroke-linecap="round" stroke-linejoin="round" stroke-width="12" d="M96 16.5a19.919 19.919 0 0 1 14.073 5.819 19.878 19.878 0 0 1 5.833 14.055v119.25a19.878 19.878 0 0 1-5.833 14.056A19.913 19.913 0 0 1 96 175.499a19.916 19.916 0 0 1-14.073-5.819 19.875 19.875 0 0 1-5.832-14.055V36.376a19.871 19.871 0 0 1 9.954-17.215A19.918 19.918 0 0 1 96 16.5Zm-75.641 3.628a3.63 3.63 0 0 1 1.816-3.14 3.64 3.64 0 0 1 1.816-.485 36.218 36.218 0 0 1 25.573 10.581A36.15 36.15 0 0 1 60.17 52.625v119.25a3.624 3.624 0 0 1-3.632 3.625 36.221 36.221 0 0 1-25.575-10.581 36.148 36.148 0 0 1-10.606-25.543Zm111.472 32.496a36.147 36.147 0 0 1 10.605-25.543A36.221 36.221 0 0 1 168.011 16.5a3.631 3.631 0 0 1 3.145 1.811c.319.552.487 1.177.487 1.814v119.25a36.148 36.148 0 0 1-10.606 25.543 36.217 36.217 0 0 1-25.574 10.581 3.626 3.626 0 0 1-3.632-3.625Z"/></svg>

<svg
    xmlns="http://www.w3.org/2000/svg"
    viewBox="0 0 192 192"
    id="vector">
    <path
        id="path"
        d="M 96 16.5 C 101.276 16.499 106.341 18.593 110.073 22.319 C 113.805 26.045 115.904 31.104 115.906 36.374 L 115.906 155.624 C 115.904 160.895 113.805 165.954 110.073 169.68 C 106.342 173.406 101.276 175.501 96 175.499 C 90.725 175.501 85.659 173.406 81.927 169.68 C 78.196 165.955 76.096 160.895 76.095 155.625 L 76.095 36.376 C 76.096 32.886 77.016 29.458 78.763 26.436 C 80.511 23.414 83.024 20.905 86.049 19.161 C 89.075 17.417 92.507 16.499 96 16.5 Z M 20.359 20.128 C 20.359 19.492 20.527 18.866 20.845 18.315 C 21.164 17.763 21.623 17.306 22.175 16.988 C 22.727 16.67 23.354 16.503 23.991 16.503 C 33.578 16.505 42.782 20.313 49.564 27.084 C 56.345 33.855 60.162 43.048 60.17 52.625 L 60.17 171.875 C 60.17 172.512 60.002 173.137 59.683 173.689 C 59.365 174.24 58.906 174.698 58.354 175.016 C 57.802 175.334 57.175 175.501 56.538 175.5 C 46.95 175.498 37.745 171.69 30.963 164.919 C 24.182 158.148 20.364 148.954 20.357 139.376 Z M 131.831 52.624 C 131.838 43.046 135.655 33.852 142.436 27.081 C 149.218 20.31 158.423 16.502 168.011 16.5 C 168.648 16.499 169.274 16.666 169.827 16.984 C 170.379 17.302 170.837 17.76 171.156 18.311 C 171.475 18.863 171.643 19.488 171.643 20.125 L 171.643 139.375 C 171.636 148.953 167.818 158.147 161.037 164.918 C 154.255 171.689 145.05 175.498 135.463 175.499 C 134.825 175.5 134.199 175.333 133.647 175.015 C 133.094 174.697 132.636 174.239 132.317 173.688 C 131.998 173.136 131.83 172.511 131.831 171.874 Z"
        fill="none"
        stroke="#000000"
        stroke-width="12"
        stroke-linecap="round"
        stroke-linejoin="round"/>
</svg>
